src/images_karasa_jaga_svg/cmd/sc_insertcolumnbreak2.svg

<svg height="16" viewBox="0 0 4.2333333 4.2333335" width="16" xmlns="http://www.w3.org/2000/svg" xmlns:xlink="http://www.w3.org/1999/xlink"><linearGradient id="a" gradientUnits="userSpaceOnUse" x1="2.116667" x2="2.116667" y1="22.225001" y2="9.525001"><stop offset="0" stop-color="#06f"/><stop offset="1" stop-color="#80b3ff"/></linearGradient><linearGradient id="b" gradientTransform="matrix(-.84615404 0 0 -1.2648364 31.261552 637.61137)" gradientUnits="userSpaceOnUse" x1="-5.580285" x2="41.94849" y1="297.74185" y2="264.27243"><stop offset="0" stop-color="#cccdcf"/><stop offset=".11366145" stop-color="#e0e0e1"/><stop offset=".20296694" stop-color="#f2f2f2"/><stop offset=".21468808" stop-color="#fafafa"/><stop offset=".21468808" stop-color="#fff"/><stop offset=".63157898" stop-color="#fafafa"/><stop offset=".8449" stop-color="#ebecec"/><stop offset="1" stop-color="#e1e2e3"/></linearGradient><filter id="c" color-interpolation-filters="sRGB" height="1.0264" width="1.022" x="-.011" y="-.0132"><feGaussianBlur stdDeviation=".1200918"/></filter><filter id="d" color-interpolation-filters="sRGB" height="1.132" width="1.11" x="-.055" y="-.066"><feGaussianBlur stdDeviation=".600459"/></filter><filter id="e" color-interpolation-filters="sRGB" height="1.0528" width="1.044" x="-.022" y="-.0264"><feGaussianBlur stdDeviation=".2401836"/></filter><g transform="matrix(.125 0 0 .125 -.000002 -32.759372)"><path d="m1.7325692 267.06621h30.4015288v30.2342h-30.4015288z" fill="#313131" filter="url(#e)" transform="matrix(-1.0080161 0 0 -1.0080161 34.002412 564.51196)"/><path d="m1.8599554 267.24631h30.1467556v29.874h-30.1467556z" fill="#949494" filter="url(#c)" transform="matrix(-1.0531812 0 0 -1.0531812 34.767212 577.25679)"/><path d="m2.4287318 267.39798h29.0092052v29.57064h-29.0092052z" fill="#a4a4a4" filter="url(#d)" transform="matrix(-1.09448 0 0 -1.09448 35.466532 588.91063)"/><path d="m31.750012 294.88329h-29.63334v-29.6333h29.63334z" fill="#f8f8f8" opacity=".99"/><path d="m28.575012 291.70832h-23.28334v-23.28333h23.28334z" fill="url(#b)" opacity=".99"/><g fill="#cacaca"><path d="m29.633342 292.76665h-1.05833v-25.4h1.05833z"/><path d="m5.291682 292.76665h-1.05834v-25.4h1.05834z"/><path d="m28.574999 286.41666v1.05833h-23.2833295v-1.05833z"/><path d="m29.633332 267.36665v1.05833h-25.3999988v-1.05833z"/><path d="m29.633332 272.65832v1.05833h-25.399998v-1.05833z"/><path d="m29.633332 276.89165v1.05833h-25.3999972v-1.05833z"/><path d="m29.633332 281.12499v1.05833h-25.3999964v-1.05833z"/><path d="m28.574999 291.70832v1.05833h-23.2833298v-1.05833z"/><path d="m9.5250064 292.76665h-1.05834v-25.4h1.05834z"/><path d="m13.75834 292.76665h-1.05834v-25.4h1.05834z"/><path d="m19.050006 292.76665h-1.05834v-25.4h1.05834z"/><path d="m24.341673 292.76665h-1.05834v-25.4h1.05834z"/></g><g fill="#258aff" fill-rule="evenodd" transform="matrix(0 1 -1 0 293.824983 259.958317)"><path d="m8.4666713 279.00832v2.11667h4.2333327v-2.11667z"/><path d="m13.758337 279.00832v2.11667h3.175001v-2.11667z"/><path d="m17.991671 279.00832v2.11667h3.174999v-2.11667z"/><path d="m22.225003 279.00832v2.11667h4.233334v-2.11667z"/><path d="m27.51667 279.00831v2.11667l4.233333.00001v-2.11667z"/><path d="m5.2916664 280.06664v2.11667h2.1166666v-2.11667z"/><path d="m32.808336 279.00832v2.11667h2.116667v-2.11667z"/></g></g><g transform="matrix(0 .125 -.125 0 3.704168 0)"><path d="m8.4666671 15.875001c-2.2163347 1.439211-6.2503322 4.910787-8.4666667 6.349999v-12.7000002c2.2163345 1.4392122 6.2503323 4.9107892 8.4666667 6.3500012z" fill="url(#a)"/><path d="m8 56.052734v15.894532c3.497188-2.745361 6.765701-5.232021 10.330078-7.947266-3.564377-2.715245-6.83289-5.201905-10.330078-7.947266z" fill="#bfd9ff" transform="matrix(.26458334 0 0 .26458334 0 -1.058333)"/></g></svg>

<?xml version="1.0" encoding="UTF-8" standalone="no"?>
<svg
   xmlns:dc="http://purl.org/dc/elements/1.1/"
   xmlns:cc="http://creativecommons.org/ns#"
   xmlns:rdf="http://www.w3.org/1999/02/22-rdf-syntax-ns#"
   xmlns:svg="http://www.w3.org/2000/svg"
   xmlns="http://www.w3.org/2000/svg"
   xmlns:xlink="http://www.w3.org/1999/xlink"
   xmlns:sodipodi="http://sodipodi.sourceforge.net/DTD/sodipodi-0.dtd"
   xmlns:inkscape="http://www.inkscape.org/namespaces/inkscape"
   height="128"
   viewBox="0 0 33.866666 33.866668"
   width="128"
   version="1.1"
   id="svg94"
   sodipodi:docname="sc_insertcolumnbreak2.svg"
   inkscape:version="0.92.3 (unknown)"
   inkscape:export-filename="/home/rizmut/Dokumen/Rizmut/Github/libreoffice-style-karasa-jaga/build/images_karasa_jaga/cmd/sc_insertcolumnbreak2.png"
   inkscape:export-xdpi="12"
   inkscape:export-ydpi="12">
  <metadata
     id="metadata100">
    <rdf:RDF>
      <cc:Work
         rdf:about="">
        <dc:format>image/svg+xml</dc:format>
        <dc:type
           rdf:resource="http://purl.org/dc/dcmitype/StillImage" />
        <dc:title></dc:title>
      </cc:Work>
    </rdf:RDF>
  </metadata>
  <defs
     id="defs98">
    <linearGradient
       gradientTransform="matrix(0.26458334,0,0,0.26458334,3.9999995e-7,-1.0583332)"
       inkscape:collect="always"
       xlink:href="#linearGradient4372"
       id="linearGradient944"
       x1="8"
       y1="88"
       x2="8"
       y2="40"
       gradientUnits="userSpaceOnUse" />
    <linearGradient
       inkscape:collect="always"
       id="linearGradient4372">
      <stop
         style="stop-color:#0066ff;stop-opacity:1;"
         offset="0"
         id="stop4374" />
      <stop
         style="stop-color:#80b3ff;stop-opacity:1"
         offset="1"
         id="stop4376" />
    </linearGradient>
  </defs>
  <sodipodi:namedview
     pagecolor="#ffffff"
     bordercolor="#666666"
     borderopacity="1"
     objecttolerance="10"
     gridtolerance="10"
     guidetolerance="10"
     inkscape:pageopacity="0"
     inkscape:pageshadow="2"
     inkscape:window-width="1366"
     inkscape:window-height="706"
     id="namedview96"
     showgrid="true"
     inkscape:zoom="2.6074563"
     inkscape:cx="18.356241"
     inkscape:cy="68.30308"
     inkscape:window-x="0"
     inkscape:window-y="0"
     inkscape:window-maximized="1"
     inkscape:current-layer="svg94">
    <inkscape:grid
       type="xygrid"
       id="grid907"
       spacingx="1.0583333"
       spacingy="1.0583333"
       empspacing="2" />
  </sodipodi:namedview>
  <linearGradient
     id="a"
     gradientTransform="matrix(-0.84615404,0,0,-1.2648364,31.261552,637.61137)"
     gradientUnits="userSpaceOnUse"
     x1="-5.580285"
     x2="41.94849"
     y1="297.74185"
     y2="264.27243">
    <stop
       offset="0"
       stop-color="#cccdcf"
       id="stop2" />
    <stop
       offset=".11366145"
       stop-color="#e0e0e1"
       id="stop4" />
    <stop
       offset=".20296694"
       stop-color="#f2f2f2"
       id="stop6" />
    <stop
       offset=".21468808"
       stop-color="#fafafa"
       id="stop8" />
    <stop
       offset=".21468808"
       stop-color="#fff"
       id="stop10" />
    <stop
       offset=".63157898"
       stop-color="#fafafa"
       id="stop12" />
    <stop
       offset=".8449"
       stop-color="#ebecec"
       id="stop14" />
    <stop
       offset="1"
       stop-color="#e1e2e3"
       id="stop16" />
  </linearGradient>
  <filter
     id="b"
     color-interpolation-filters="sRGB"
     height="1.0264"
     width="1.022"
     x="-.011"
     y="-.0132">
    <feGaussianBlur
       stdDeviation=".1200918"
       id="feGaussianBlur19" />
  </filter>
  <filter
     id="c"
     color-interpolation-filters="sRGB"
     height="1.132"
     width="1.11"
     x="-.055"
     y="-.066">
    <feGaussianBlur
       stdDeviation=".600459"
       id="feGaussianBlur22" />
  </filter>
  <filter
     id="d"
     color-interpolation-filters="sRGB"
     height="1.0528"
     width="1.044"
     x="-.022"
     y="-.0264">
    <feGaussianBlur
       stdDeviation=".2401836"
       id="feGaussianBlur25" />
  </filter>
  <g
     transform="translate(-1.55e-5,-262.07498)"
     id="g92">
    <path
       d="M 1.7325692,267.06621 H 32.134098 v 30.2342 H 1.7325692 Z"
       transform="matrix(-1.0080161,0,0,-1.0080161,34.002412,564.51196)"
       id="path28"
       inkscape:connector-curvature="0"
       style="fill:#313131;filter:url(#d)" />
    <path
       d="M 1.8599554,267.24631 H 32.006711 v 29.874 H 1.8599554 Z"
       transform="matrix(-1.0531812,0,0,-1.0531812,34.767212,577.25679)"
       id="path30"
       inkscape:connector-curvature="0"
       style="fill:#949494;filter:url(#b)" />
    <path
       d="M 2.4287318,267.39798 H 31.437937 v 29.57064 H 2.4287318 Z"
       transform="matrix(-1.09448,0,0,-1.09448,35.466532,588.91063)"
       id="path32"
       inkscape:connector-curvature="0"
       style="fill:#a4a4a4;filter:url(#c)" />
    <path
       d="M 31.750012,294.88329 H 2.116672 v -29.6333 h 29.63334 z"
       id="path34"
       inkscape:connector-curvature="0"
       style="opacity:0.98999999;fill:#f8f8f8" />
    <path
       d="M 28.575012,291.70832 H 5.291672 v -23.28333 h 23.28334 z"
       id="path36"
       style="opacity:0.98999999;fill:url(#a)"
       inkscape:connector-curvature="0" />
    <path
       d="m 29.633342,292.76665 h -1.05833 v -25.4 h 1.05833 z"
       id="path38"
       inkscape:connector-curvature="0"
       style="fill:#cacaca" />
    <path
       d="m 5.291682,292.76665 h -1.05834 v -25.4 h 1.05834 z"
       id="path40"
       inkscape:connector-curvature="0"
       style="fill:#cacaca" />
    <path
       d="m 28.574999,286.41666 v 1.05833 H 5.2916695 v -1.05833 z"
       id="path42"
       inkscape:connector-curvature="0"
       style="fill:#cacaca" />
    <path
       d="m 29.633332,267.36665 v 1.05833 H 4.2333332 v -1.05833 z"
       id="path44"
       inkscape:connector-curvature="0"
       style="fill:#cacaca" />
    <path
       d="m 29.633332,272.65832 v 1.05833 H 4.233334 v -1.05833 z"
       id="path46"
       inkscape:connector-curvature="0"
       style="fill:#cacaca" />
    <path
       d="m 29.633332,276.89165 v 1.05833 H 4.2333348 v -1.05833 z"
       id="path48"
       inkscape:connector-curvature="0"
       style="fill:#cacaca" />
    <path
       d="m 29.633332,281.12499 v 1.05833 H 4.2333356 v -1.05833 z"
       id="path50"
       inkscape:connector-curvature="0"
       style="fill:#cacaca" />
    <path
       d="m 28.574999,291.70832 v 1.05833 H 5.2916692 v -1.05833 z"
       id="path52"
       inkscape:connector-curvature="0"
       style="fill:#cacaca" />
    <path
       d="m 9.5250064,292.76665 h -1.05834 v -25.4 h 1.05834 z"
       id="path54"
       inkscape:connector-curvature="0"
       style="fill:#cacaca" />
    <path
       d="M 13.75834,292.76665 H 12.7 v -25.4 h 1.05834 z"
       id="path56"
       inkscape:connector-curvature="0"
       style="fill:#cacaca" />
    <path
       d="m 19.050006,292.76665 h -1.05834 v -25.4 h 1.05834 z"
       id="path58"
       inkscape:connector-curvature="0"
       style="fill:#cacaca" />
    <path
       d="m 24.341673,292.76665 h -1.05834 v -25.4 h 1.05834 z"
       id="path60"
       inkscape:connector-curvature="0"
       style="fill:#cacaca" />
    <g
       id="g90"
       style="fill:#258aff;fill-rule:evenodd">
      <g
         id="g955"
         transform="rotate(90,16.933333,276.89165)">
        <path
           inkscape:connector-curvature="0"
           id="path72"
           d="m 8.4666713,279.00832 v 2.11667 h 4.2333327 v -2.11667 z"
           sodipodi:nodetypes="ccccc" />
        <path
           inkscape:connector-curvature="0"
           id="path74"
           d="m 13.758337,279.00832 v 2.11667 h 3.175001 v -2.11667 z" />
        <path
           inkscape:connector-curvature="0"
           id="path76"
           d="m 17.991671,279.00832 v 2.11667 h 3.174999 v -2.11667 z"
           sodipodi:nodetypes="ccccc" />
        <path
           inkscape:connector-curvature="0"
           id="path78"
           d="m 22.225003,279.00832 v 2.11667 h 4.233334 v -2.11667 z"
           sodipodi:nodetypes="ccccc" />
        <path
           sodipodi:nodetypes="ccccc"
           inkscape:connector-curvature="0"
           id="path80"
           d="m 27.51667,279.00831 v 2.11667 l 4.233333,1e-5 v -2.11667 z" />
        <path
           inkscape:connector-curvature="0"
           id="path82"
           d="m 5.2916664,280.06664 v 2.11667 H 7.408333 v -2.11667 z"
           sodipodi:nodetypes="ccccc" />
        <path
           inkscape:connector-curvature="0"
           id="path84"
           d="m 32.808336,279.00832 v 2.11667 h 2.116667 v -2.11667 z"
           sodipodi:nodetypes="ccccc" />
      </g>
    </g>
  </g>
  <g
     id="g927"
     transform="rotate(90,14.816671,14.816671)">
    <path
       id="path132"
       d="M 8.4666671,15.875001 C 6.2503324,17.314212 2.2163349,20.785788 3.9999995e-7,22.225 V 9.5249998 C 2.2163349,10.964212 6.2503327,14.435789 8.4666671,15.875001 Z"
       inkscape:connector-curvature="0"
       style="fill:url(#linearGradient944);fill-opacity:1;stroke:none;stroke-width:0.17488948"
       sodipodi:nodetypes="cccc" />
    <path
       d="M 8,56.052734 V 71.947266 C 11.497188,69.201905 14.765701,66.715245 18.330078,64 14.765701,61.284755 11.497188,58.798095 8,56.052734 Z"
       id="path946"
       style="fill:#bfd9ff;fill-opacity:1;stroke:none;stroke-width:0.6609996"
       inkscape:original="M 0 40 L 0 88 C 8.3766971 82.560459 23.623302 69.43954 32 64 C 23.623303 58.560459 8.3766972 45.439541 0 40 z "
       inkscape:radius="-8"
       sodipodi:type="inkscape:offset"
       transform="matrix(0.26458334,0,0,0.26458334,3.9999995e-7,-1.0583332)" />
  </g>
</svg>
